img/sign-up.svg

<svg width="14" height="16" viewBox="0 0 14 16" fill="none" xmlns="http://www.w3.org/2000/svg">
<path d="M10.5773 3.80964C10.5773 5.91357 8.88578 7.61893 6.79938 7.61893C4.71299 7.61893 3.02148 5.91357 3.02148 3.80964C3.02148 1.70571 4.71299 0 6.79938 0C8.88578 0 10.5773 1.70571 10.5773 3.80964Z" fill="white"/>
<path d="M10.0112 9.14286H3.58877C1.61004 9.14286 0 10.7664 0 12.7618V15.4286C0 15.7439 0.253938 16 0.566667 16H13.0333C13.3461 16 13.6 15.7439 13.6 15.4286V12.7618C13.6 10.7664 11.99 9.14286 10.0112 9.14286Z" fill="white"/>
</svg>

<svg width="14" height="16" fill="none" xmlns="http://www.w3.org/2000/svg"><path d="M10.577 3.81c0 2.104-1.691 3.809-3.778 3.809-2.086 0-3.778-1.705-3.778-3.81C3.021 1.707 4.713 0 6.8 0c2.087 0 3.778 1.706 3.778 3.81zm-.566 5.333H3.59C1.61 9.143 0 10.766 0 12.762v2.667A.57.57 0 00.567 16h12.466a.57.57 0 00.567-.571v-2.667c0-1.996-1.61-3.62-3.589-3.62z" fill="#fff"/></svg>
